X:292
T: Sheyuan gege xiyangyang
N: C1789
O: China, Jiangsu Jiangyin
S: III, 439]
R: Wuge, Huagu diao]
M: 2/4
L: 1/16
K: C
G2GGE2G2 | AcG2A4 | A2d2cdcA | G8
A2d2cdcA | G3Ac4 | E2AcGAGE | D8
G3EG2A2 | c2c2AcAG | E2G2C4 | A8
A2d2cdcA | G2A2c2dc | A2AcGAGE | D8
d3dc2d2 | AcAGA4 | A2d2cdcA | GAGEG4
A2d2cdcA | G2A2c4 | A2AcGAGE | D4
G2GE | C3DG2GE | D8

